X: 52
T:Flop-eared Mule
M:4/4
R:reel
Q:1/2=120
L:1/4
K:G
d|"G"bb gg|"G"d/2e/2d/2B/2 GG|"D7"F/2G/2A/2B/2 c/2d/2c/2A/2|"G"G/2A/2B/2c/2 dd|
"G" bb gg|"G"d/2e/2d/2B/2 GG|"D7"F/2G/2A/2B/2 c/2d/2e/2f/2|"G"g2 g::
K:D
|:f/2g/2|"D"aa/2f/2 aa/2f/2|"Bm"a/2b/2a/2f/2 dd|"A7"c/2d/2e/2f/2 g/2a/2g/2e/2|
"D"d/2e/2f/2g/2 af/2g/2|
"D"aa/2f/2 aa/2f/2|a/2b/2a/2f/2 dd|"A7"A/2c/2e/2f/2 g/2a/2g/2e/2|"D"df d:|
